X:310
T:Gan Ainm
M:4/4
L:1/8
R:Reel
D:Session tape - Corofin, Clare
Z:Bernie Stocks
K:D
B3c d2ed | egfd eB~B2 |1 G3B A2Bc | dfaf gfed :|2 G3B ABcd | faeg fdd2 | \
eAAA eAeg | fddd defa | g2bg f2af | egfg edBd |\
BGGB AFFA | dfaf g2ga | bgaf gfed | egfd e2ge ||
